Project/Into The Light/Assets/Art/LUTs/ITL Lut Industrial Exterior_1.Frame.cube
TITLE "Generated by Resolve"
LUT_3D_SIZE 9
0 0 0
0 0 0
0.270405 0.0151522 0
0.761242 0.257115 0
1 0.555261 0
1 0.863294 0
1 1 0
1 1 0
1 1 0
0 0.00354009 0
0.011368 0.041001 0.00289921
0.238437 0.108309 0
0.743664 0.265568 0
1 0.558648 0
1 0.863951 0
1 1 0
1 1 0
1 1 0
0 0.347509 0.0529641
0 0.344808 0.0594492
0.299123 0.345907 0.111116
0.565545 0.328023 0
1 0.562737 0
1 0.85481 0
1 1 0
1 1 0
1 1 0
0 0.868833 0.155596
0 0.86595 0.153841
0.180911 0.840208 0.196597
0.712261 0.805478 0.257771
0.902815 0.662028 0.0985275
1 0.876631 0
1 1 0
1 1 0
1 1 0
0 1 0.511406
0 1 0.510842
0 1 0.471534
0.571984 1 0.484718
1 1 0.541329
1 1 0.173724
1 1 0
1 1 0
1 1 0
0 1 0.738582
0 1 0.737591
0 1 0.733944
0 1 0.759976
1 1 0.797086
1 1 0.835523
1 1 0.534569
1 1 0
1 1 0
0 1 1
0 1 1
0 1 1
0 1 1
0.758648 1 1
1 1 1
1 1 1
1 1 0.912551
1 1 0.373938
0 1 1
0 1 1
0 1 1
0 1 1
0 1 1
1 1 1
1 1 1
1 1 1
1 1 1
0 1 1
0 1 1
0 1 1
0 1 1
0 1 1
0.866606 1 1
1 1 1
1 1 1
1 1 1
0 0 0
0.028275 0 0.00434882
0.273243 0.038117 0
0.76376 0.257282 0
1 0.551461 0
1 0.860243 0
1 1 0
1 1 0
1 1 0
0 0.0163577 0.00601205
0.042298 0.0358587 0.0077821
0.245518 0.110948 0
0.746288 0.265522 0
1 0.555428 0
1 0.86099 0
1 1 0
1 1 0
1 1 0
0 0.345556 0.05626
0 0.343206 0.0624704
0.304128 0.343862 0.112505
0.568032 0.32755 0
1 0.562203 0
1 0.855512 0
1 1 0
1 1 0
1 1 0
0 0.867521 0.18378
0 0.864668 0.181903
0.180896 0.838178 0.223407
0.711955 0.804471 0.280339
0.899199 0.660853 0.120821
1 0.876387 0
1 1 0
1 1 0
1 1 0
0 1 0.518441
0 1 0.517876
0 1 0.479561
0.571206 1 0.492699
1 1 0.548791
1 1 0.182376
1 1 0
1 1 0
1 1 0
0 1 0.742428
0 1 0.741283
0 1 0.737499
0 1 0.763272
1 1 0.800259
1 1 0.83827
1 1 0.536706
1 1 0
1 1 0
0 1 1
0 1 1
0 1 1
0 1 1
0.755978 1 1
1 1 1
1 1 1
1 1 0.913375
1 1 0.376745
0 1 1
0 1 1
0 1 1
0 1 1
0 1 1
1 1 1
1 1 1
1 1 1
1 1 1
0 1 1
0 1 1
0 1 1
0 1 1
0 1 1
0.863554 1 1
1 1 1
1 1 1
1 1 1
0.119783 0.0894484 0.353384
0.120989 0.0807355 0.341466
0.31693 0.0144503 0.435187
0.805966 0 0.469017
1 0.37763 0
1 0.791623 0
1 1 0
1 1 0
1 1 0
0.11249 0.109499 0.35816
0.129824 0.104891 0.362951
0.307973 0.0466468 0.428489
0.792737 0 0.456825
1 0.394476 0
1 0.795239 0
1 1 0
1 1 0
1 1 0
0 0.34934 0.470863
0 0.343359 0.46247
0.298116 0.335058 0.439017
0.695369 0.344854 0.366659
1 0.54313 0
1 0.837537 0
1 1 0
1 1 0
1 1 0
0 0.858808 0.50869
0 0.85594 0.506081
0.172778 0.826841 0.518212
0.725216 0.811261 0.555886
0.911559 0.680812 0.302983
1 0.883024 0
1 1 0
1 1 0
1 1 0
0 1 0.654719
0 1 0.653208
0 1 0.62414
0.572168 1 0.637461
1 1 0.682429
1 1 0.302358
1 1 0
1 1 0
1 1 0
0 1 0.818662
0 1 0.816999
0 1 0.809842
0 1 0.82501
1 1 0.832776
1 1 0.862333
1 1 0.553399
1 1 0
1 1 0
0 1 1
0 1 1
0 1 1
0 1 1
0.746365 1 1
1 1 1
1 1 1
1 1 0.920684
1 1 0.395315
0 1 1
0 1 1
0 1 1
0 1 1
0 1 1
1 1 1
1 1 1
1 1 1
1 1 1
0 1 1
0 1 1
0 1 1
0 1 1
0 1 1
0.853635 1 1
1 1 1
1 1 1
1 1 1
0.455055 0.516228 1
0.462852 0.511864 1
0.548837 0.490562 1
0.817166 0.397757 1
1 0 1
1 0.435889 1
1 0.684977 0.642298
1 1 0.010193
1 1 0
0.447929 0.521691 1
0.455238 0.517311 1
0.542199 0.494438 1
0.81088 0.403479 1
1 0 1
1 0.440803 1
1 0.696651 0.634455
1 1 0
1 1 0
0.34168 0.558999 1
0.34995 0.555993 1
0.46421 0.54696 1
0.774105 0.511452 1
1 0.277363 1
1 0.538491 1
1 0.701015 0.628428
1 1 0
1 1 0
0 0.864454 1
0.0140841 0.860365 1
0.277607 0.800381 1
0.601709 0.7037 0.969329
1 0.797055 1
1 0.78201 0.896025
1 1 0.5393
1 1 0
1 1 0
0 1 1
0 1 1
0 1 1
0.54197 1 1
1 1 1
1 1 0.737362
1 1 0.466056
1 1 0
1 1 0
0 1 1
0 1 1
0 1 1
0 1 1
1 1 1
1 1 1
1 1 0.814969
1 1 0
1 1 0
0 1 1
0 1 1
0 1 1
0 1 1
0.716548 1 1
1 1 1
1 1 1
1 1 1
1 1 0.633921
0 1 1
0 1 1
0 1 1
0 1 1
0 1 1
1 1 1
1 1 1
1 1 1
1 1 1
0 1 1
0 1 1
0 1 1
0 1 1
0 1 1
0.821408 1 1
1 1 1
1 1 1
1 1 1
0.814786 0.972305 1
0.817029 0.969146 1
0.864149 0.946212 1
1 0.926162 1
1 0.826047 1
1 0.613504 1
1 0.375967 1
1 0.872496 1
1 0.973663 1
0.810773 0.9729 1
0.812955 0.969818 1
0.859922 0.9467 1
1 0.926116 1
1 0.826658 1
1 0.615305 1
1 0.386954 1
1 0.857343 1
1 0.973053 1
0.751644 0.982345 1
0.754635 0.98027 1
0.81239 0.96849 1
1 0.958541 1
1 0.869337 1
1 0.677302 1
1 0.513298 1
1 0.846845 1
1 0.967971 1
0.635279 1 1
0.637919 1 1
0.688228 1 1
0.82707 0.985428 1
1 1 1
1 0.909239 1
1 0.839399 1
1 1 1
1 1 1
0.322072 1 1
0.328084 1 1
0.438972 1 1
0.643977 1 1
1 1 1
1 1 1
1 1 1
1 1 1
1 1 1
0 1 1
0 1 1
0 1 1
0 1 1
0.99292 1 1
1 1 1
1 1 1
1 1 1
1 1 1
0 1 1
0 1 1
0 1 1
0 1 1
0.645258 1 1
1 1 1
1 1 1
1 1 1
1 1 1
0 1 1
0 1 1
0 1 1
0 1 1
0 1 1
1 1 1
1 1 1
1 1 1
1 1 1
0 1 1
0 1 1
0 1 1
0 1 1
0 1 1
0.759045 1 1
1 1 1
1 1 1
1 1 1
1 1 1
1 1 1
1 1 1
1 1 1
1 1 1
1 1 1
1 1 1
1 0.655482 1
1 0.883436 1
1 1 1
1 1 1
1 1 1
1 1 1
1 1 1
1 1 1
1 1 1
1 0.656413 1
1 0.885679 1
1 1 1
1 1 1
1 1 1
1 1 1
1 1 1
1 1 1
1 1 1
1 0.667872 1
1 0.806195 1
1 1 1
1 1 1
1 1 1
1 1 1
1 1 1
1 1 1
1 1 1
1 0.866911 1
1 1 1
0.954498 1 1
0.949844 1 1
0.89131 1 1
1 1 1
1 1 1
1 1 1
1 1 1
1 1 1
1 1 1
0.697169 1 1
0.699672 1 1
0.71635 1 1
0.871672 1 1
1 1 1
1 1 1
1 1 1
1 1 1
1 1 1
0 1 1
0 1 1
0 1 1
0 1 1
0.799939 1 1
1 1 1
1 1 1
1 1 1
1 1 1
0 1 1
0 1 1
0 1 1
0 1 1
0 1 1
1 1 1
1 1 1
1 1 1
1 1 1
0 1 1
0 1 1
0 1 1
0 1 1
0 1 1
0.615549 1 1
1 1 1
1 1 1
1 1 1
1 1 1
1 1 1
1 1 1
1 1 1
1 1 1
1 1 1
1 1 1
1 1 1
1 1 1
1 1 1
1 1 1
1 1 1
1 1 1
1 1 1
1 1 1
1 1 1
1 1 1
1 1 1
1 1 1
1 1 1
1 1 1
1 1 1
1 1 1
1 1 1
1 1 1
1 1 1
1 1 1
1 1 1
1 1 1
1 1 1
1 1 1
1 1 1
1 1 1
1 1 1
1 1 1
1 1 1
1 1 1
1 1 1
1 1 1
1 1 1
1 1 1
1 1 1
1 1 1
1 1 1
1 1 1
1 1 1
1 1 1
1 1 1
1 1 1
1 1 1
1 1 1
1 1 1
1 1 1
1 1 1
0.969253 1 1
0.970993 1 1
0.98233 1 1
1 1 1
1 1 1
1 1 1
1 1 1
1 1 1
1 1 1
0 1 1
0 1 1
0 1 1
0 1 1
0.67541 1 1
1 1 1
1 1 1
1 1 1
1 1 1
0 1 1
0 1 1
0 1 1
0 1 1
0 1 1
0.574716 1 1
1 1 1
1 1 1
1 1 1
1 1 1
1 1 1
1 1 1
1 1 1
1 1 1
1 1 1
1 1 1
1 1 1
1 1 1
1 1 1
1 1 1
1 1 1
1 1 1
1 1 1
1 1 1
1 1 1
1 1 1
1 1 1
1 1 1
1 1 1
1 1 1
1 1 1
1 1 1
1 1 1
1 1 1
1 1 1
1 1 1
1 1 1
1 1 1
1 1 1
1 1 1
1 1 1
1 1 1
1 1 1
1 1 1
1 1 1
1 1 1
1 1 1
1 1 1
1 1 1
1 1 1
1 1 1
1 1 1
1 1 1
1 1 1
1 1 1
1 1 1
1 1 1
1 1 1
1 1 1
1 1 1
1 1 1
1 1 1
1 1 1
1 1 1
1 1 1
1 1 1
1 1 1
1 1 1
1 1 1
1 1 1
1 1 1
1 1 1
1 1 1
1 1 1
1 1 1
1 1 1
1 1 1
1 1 1
1 1 1
1 1 1
1 1 1
0 1 1
0 1 1
0 1 1
0 1 1
0 1 1
1 1 1
1 1 1
1 1 1
1 1 1
1 1 1
1 1 1
1 1 1
1 1 1
1 1 1
1 1 1
1 1 1
1 1 1
1 1 1
1 1 1
1 1 1
1 1 1
1 1 1
1 1 1
1 1 1
1 1 1
1 1 1
1 1 1
1 1 1
1 1 1
1 1 1
1 1 1
1 1 1
1 1 1
1 1 1
1 1 1
1 1 1
1 1 1
1 1 1
1 1 1
1 1 1
1 1 1
1 1 1
1 1 1
1 1 1
1 1 1
1 1 1
1 1 1
1 1 1
1 1 1
1 1 1
1 1 1
1 1 1
1 1 1
1 1 1
1 1 1
1 1 1
1 1 1
1 1 1
1 1 1
1 1 1
1 1 1
1 1 1
1 1 1
1 1 1
1 1 1
1 1 1
1 1 1
1 1 1
1 1 1
1 1 1
1 1 1
1 1 1
1 1 1
1 1 1
1 1 1
1 1 1
1 1 1
1 1 1
1 1 1
1 1 1
1 1 1
0 1 1
0 1 1
0 1 1
0 1 1
0.681865 1 1
1 1 1
1 1 1
1 1 1
1 1 1
