Project/Into The Light/Assets/Art/LUTs/ITL Lut Industrial Exterior_1.Frame.cube
TITLE "Generated by Resolve"
LUT_3D_SIZE 65
0 0 0
0 0 0
0 0 0
0 0 0
0 0 0
0 0 0
0 0 0
0 0 0
0 0 0
0.00979629 0 0
0.0149081 0 0
0.0155947 0 0
0.0333562 0 0
0.158572 0 0
0.202029 0 0
0.252766 0 0
0.270405 0.0151522 0
0.294896 0.11249 0
0.348638 0.142596 0
0.406317 0.159594 0
0.471916 0.167193 0
0.542092 0.177264 0
0.614801 0.195056 0
0.687907 0.221912 0
0.761242 0.257115 0
0.835111 0.296117 0
0.902007 0.333547 0
0.968353 0.370611 0
1 0.407889 0
1 0.445289 0
1 0.48278 0
1 0.517571 0
1 0.555261 0
1 0.593561 0
1 0.630426 0
1 0.668162 0
1 0.706386 0
1 0.744915 0
1 0.784009 0
1 0.823423 0
1 0.863294 0
1 0.903532 0
1 0.944121 0
1 0.985 0
1 1 0
1 1 0
1 1 0
1 1 0
1 1 0
1 1 0
1 1 0
1 1 0
1 1 0
1 1 0
1 1 0
1 1 0
1 1 0
1 1 0
1 1 0
1 1 0
1 1 0
1 1 0
1 1 0
1 1 0
1 1 0
0 0 0
0 0 0
0 0 0
0 0 0
0 0 0
0 0 0
0 0 0
0 0 0
0 0 0
0.00959792 0 0
0.0146487 0 0
0.0153658 0 0
0.0333257 0 0
0.158556 0 0
0.201953 0 0
0.252491 0 0
0.268864 0.0213779 0
0.294789 0.112764 0
0.348531 0.142657 0
0.406195 0.159518 0
0.471794 0.167071 0
0.54197 0.177203 0
0.614694 0.195071 0
0.687846 0.221958 0
0.761059 0.257176 0
0.834974 0.296178 0
0.901884 0.333623 0
0.9682 0.370672 0
1 0.407919 0
1 0.445319 0
1 0.482795 0
1 0.517586 0
1 0.555276 0
1 0.593576 0
1 0.630457 0
1 0.668193 0
1 0.706432 0
1 0.744945 0
1 0.783963 0
1 0.823453 0
1 0.863279 0
1 0.903517 0
1 0.944106 0
1 0.985031 0
1 1 0
1 1 0
1 1 0
1 1 0
1 1 0
1 1 0
1 1 0
1 1 0
1 1 0
1 1 0
1 1 0
1 1 0
1 1 0
1 1 0
1 1 0
1 1 0
1 1 0
1 1 0
1 1 0
1 1 0
1 1 0
0 0 0
0 0 0
0 0 0
0 0 0
0 0 0
0 0 0
0 0 0
0 0 0
0 0 0
0.00886549 0 0
0.0136721 0 0
0.0144961 0 0
0.0333867 0 0
0.158495 0 0
0.201617 0 0
0.252522 0 0
0.26453 0.0376898 0
0.294301 0.113924 0
0.348135 0.142901 0
0.405859 0.159274 0
0.471519 0.166583 0
0.541634 0.17702 0
0.614237 0.195071 0
0.687266 0.222141 0
0.760479 0.25742 0
0.834409 0.296391 0
0.901396 0.333898 0
0.967788 0.370901 0
1 0.408118 0
1 0.445487 0
1 0.482948 0
1 0.517632 0
1 0.555383 0
1 0.593668 0
1 0.630579 0
1 0.668269 0
1 0.706477 0
1 0.745022 0
1 0.784009 0
1 0.823453 0
1 0.863325 0
1 0.903548 0
1 0.944121 0
1 0.985031 0
1 1 0
1 1 0
1 1 0
1 1 0
1 1 0
1 1 0
1 1 0
1 1 0
1 1 0
1 1 0
1 1 0
1 1 0
1 1 0
1 1 0
1 1 0
1 1 0
1 1 0
1 1 0
1 1 0
1 1 0
1 1 0
0 0 0
0 0 0
0 0 0
0 0 0
0 0 0
0 0 0
0 0 0
0 0 0
0 0 0
0.00782788 0 0
0.0121462 0 0
0.0132296 0 0
0.0345312 0 0
0.158526 0 0
0.200961 0 0
0.253101 0 0
0.258869 0.0565194 0
0.293385 0.116091 0
0.347341 0.143313 0
0.405188 0.158694 0
0.470832 0.16553 0
0.540871 0.176654 0
0.613291 0.195117 0
0.686229 0.222553 0
0.759319 0.257908 0
0.833143 0.296849 0
0.900572 0.334432 0
0.966903 0.371359 0
1 0.408515 0
1 0.445823 0
1 0.483207 0
1 0.517754 0
1 0.555596 0
1 0.593881 0
1 0.630732 0
1 0.668421 0
1 0.706645 0
1 0.745129 0
1 0.784085 0
1 0.823514 0
1 0.863355 0
1 0.903563 0
1 0.944137 0
1 0.985016 0
1 1 0
1 1 0
1 1 0
1 1 0
1 1 0
1 1 0
1 1 0
1 1 0
1 1 0
1 1 0
1 1 0
1 1 0
1 1 0
1 1 0
1 1 0
1 1 0
1 1 0
1 1 0
1 1 0
1 1 0
1 1 0
0 0 0
0 0 0
0 0 0
0 0 0
0 0 0
0 0 0
0 0 0
0 0 0
0 0 0
0.00720226 0 0
0.0107576 0 0
0.0125277 0 0
0.0398718 0 0
0.158907 0 0
0.199985 0 0
0.251911 0 0
0.252613 0.0744793 0
0.292088 0.119051 0
0.346151 0.143709 0
0.404196 0.15761 0
0.469856 0.163806 0
0.539666 0.176104 0
0.611337 0.195285 0
0.684443 0.223377 0
0.757473 0.258701 0
0.831205 0.297581 0
0.899214 0.335302 0
0.965469 0.372122 0
1 0.40914 0
1 0.446342 0
1 0.48365 0
1 0.518013 0
1 0.555978 0
1 0.594217 0
1 0.631037 0
1 0.668666 0
1 0.706813 0
1 0.745251 0
1 0.784192 0
1 0.82359 0
1 0.863401 0
1 0.903578 0
1 0.944106 0
1 0.984985 0
1 1 0
1 1 0
1 1 0
1 1 0
1 1 0
1 1 0
1 1 0
1 1 0
1 1 0
1 1 0
1 1 0
1 1 0
1 1 0
1 1 0
1 1 0
1 1 0
1 1 0
1 1 0
1 1 0
1 1 0
1 1 0
0 0 0
0 0 0
0 0 0
0 0 0
0 0 0
0 0 0
0 0 0
0 0 0
0 0 0
0.00781262 0 0
0.010193 0 0
0.0139467 0 0
0.0944228 0 0
0.159869 0 0
0.198642 0 0
0.247837 0 0
0.246159 0.0899977 0
0.290547 0.12224 0
0.343709 0.143542 0
0.403006 0.155764 0
0.468666 0.162325 0
0.537957 0.175479 0
0.609247 0.195575 0
0.681987 0.224445 0
0.75494 0.259876 0
0.828504 0.298665 0
0.897292 0.336553 0
0.963516 0.37319 0
1 0.410056 0
1 0.447089 0
1 0.48426 0
1 0.518441 0
1 0.556451 0
1 0.594675 0
1 0.631434 0
1 0.669047 0
1 0.707103 0
1 0.74551 0
1 0.78439 0
1 0.823713 0
1 0.863493 0
1 0.903624 0
1 0.944121 0
1 0.984939 0
1 1 0
1 1 0
1 1 0
1 1 0
1 1 0
1 1 0
1 1 0
1 1 0
1 1 0
1 1 0
1 1 0
1 1 0
1 1 0
1 1 0
1 1 0
1 1 0
1 1 0
1 1 0
1 1 0
1 1 0
1 1 0
0 0 0
0 0 0
0 0 0
0 0 0
0 0 0
0 0 0
0 0 0
0 0 0
0 0 0
0.00848402 0 0
0.0107576 0 0
0.0207828 0 0
0.118242 0 0
0.161425 0 0
0.201541 0 0
0.213779 0.0440681 0
0.240558 0.100191 0
0.288243 0.124346 0
0.342321 0.142885 0
0.401801 0.152697 0
0.467155 0.160647 0
0.535332 0.17499 0
0.606683 0.196216 0
0.67895 0.22594 0
0.751553 0.261448 0
0.825116 0.300069 0
0.89485 0.338155 0
0.961151 0.374533 0
1 0.411185 0
1 0.448051 0
1 0.485069 0
1 0.519051 0
1 0.557076 0
1 0.595254 0
1 0.631937 0
1 0.669474 0
1 0.707485 0
1 0.7458 0
1 0.784665 0
1 0.823926 0
1 0.863584 0
1 0.9037 0
1 0.944167 0
1 0.984955 0
1 1 0
1 1 0
1 1 0
1 1 0
1 1 0
1 1 0
1 1 0
1 1 0
1 1 0
1 1 0
1 1 0
1 1 0
1 1 0
1 1 0
1 1 0
1 1 0
1 1 0
1 1 0
1 1 0
1 1 0
1 1 0
0 0 0
0 0 0
0 0 0
0 0 0
0 0 0
0 0 0
0 0 0
0 0 0
0 0 0
0.00766003 0 0
0.0106508 0 0
0.0580148 0 0
0.123293 0 0
0.158984 0 0
0.192279 0 0
0.201297 0.0787976 0
0.237171 0.105211 0
0.287541 0.125658 0
0.34139 0.14107 0
0.400763 0.148974 0
0.465629 0.159167 0
0.533135 0.174731 0
0.603891 0.197208 0
0.675761 0.227665 0
0.748119 0.263203 0
0.821576 0.30161 0
0.892393 0.339879 0
0.958694 0.375982 0
1 0.412421 0
1 0.449073 0
1 0.485924 0
1 0.519753 0
1 0.557763 0
1 0.59585 0
1 0.632486 0
1 0.669886 0
1 0.707897 0
1 0.746136 0
1 0.784894 0
1 0.824125 0
1 0.863752 0
1 0.903807 0
1 0.944213 0
1 0.984955 0
1 1 0
1 1 0
1 1 0
1 1 0
1 1 0
1 1 0
1 1 0
1 1 0
1 1 0
1 1 0
1 1 0
1 1 0
1 1 0
1 1 0
1 1 0
1 1 0
1 1 0
1 1 0
1 1 0
1 1 0
1 1 0
0 0.00354009 0
0 0.00363165 0
0 0.00402838 0
0 0.00486763 0
0 0.00637827 0
0 0.00894179 0
0 0.0134432 0
0 0.0236362 0
0.011368 0.041001 0.00289921
0.0368811 0.0397498 0.00663767
0.0552834 0.0409247 0.0106355
0.0852064 0.0465095 0
0.0941329 0.042649 0
0.125505 0.052369 0
0.158618 0.0720531 0
0.194186 0.0916609 0
0.238437 0.108309 0
0.287984 0.124453 0
0.341085 0.136828 0
0.400031 0.146166 0
0.463142 0.157885 0
0.530205 0.175051 0
0.600244 0.199039 0
0.671565 0.230137 0
0.743664 0.265568 0
0.817044 0.303655 0
0.889189 0.342123 0
0.955505 0.37789 0
1 0.413977 0
1 0.450401 0
1 0.487007 0
1 0.520714 0
1 0.558648 0
1 0.596658 0
1 0.633173 0
1 0.670481 0
1 0.708354 0
1 0.746532 0
1 0.785245 0
1 0.824369 0
1 0.863951 0
1 0.903883 0
1 0.944244 0
1 0.984955 0
1 1 0
1 1 0
1 1 0
1 1 0
1 1 0
1 1 0
1 1 0
1 1 0
1 1 0
1 1 0
1 1 0
1 1 0
1 1 0
1 1 0
1 1 0
1 1 0
1 1 0
1 1 0
1 1 0
1 1 0
1 1 0
0 0.040238 0
0 0.0403449 0
0 0.0408942 0
0 0.0420233 0
0 0.0439918 0
0 0.0472114 0
0 0.0525216 0.00015259
0 0.0625162 0.00205997
0.00776684 0.0751049 0.0115816
0.0357214 0.075639 0.0155184
0.0654917 0.0752728 0.0201724
0.0898146 0.0776532 0.0276646
0.109514 0.080293 0.0291142
0.150988 0.0879225 0
0.186725 0.100374 0
0.219821 0.108675 0
0.249897 0.106386 0
0.291829 0.119692 0
0.342092 0.132906 0
0.39884 0.143786 0
0.460502 0.157488 0
0.526223 0.176715 0
0.595254 0.202518 0
0.666072 0.233753 0
0.738079 0.268849 0
0.81146 0.306432 0
0.885222 0.345068 0
0.951629 0.380331 0
1 0.416022 0
1 0.452079 0
1 0.485939 0
1 0.521965 0
1 0.559716 0
1 0.597604 0
1 0.633997 0
1 0.671168 0
1 0.708995 0
1 0.747036 0
1 0.785611 0
1 0.824689 0
1 0.864164 0
1 0.904112 0
1 0.944396 0
1 0.984985 0
1 1 0
1 1 0
1 1 0
1 1 0
1 1 0
1 1 0
1 1 0
1 1 0
1 1 0
1 1 0
1 1 0
1 1 0
1 1 0
1 1 0
1 1 0
1 1 0
1 1 0
1 1 0
1 1 0
1 1 0
1 1 0
0 0.0816358 0.00521859
0 0.0817426 0.00523384
0 0.0822156 0.00531014
0 0.0832227 0.00549325
0 0.084947 0.00578317
0 0.0876326 0.00621042
0 0.0917525 0.00683604
0 0.0983291 0.00775158
0.00399786 0.10341 0.0187381
0.0387579 0.104662 0.0233921
0.0697948 0.105379 0.0273136
0.10277 0.10576 0.0327459
0.123445 0.108293 0.0410925
0.145922 0.111757 0.0447242
0.179477 0.117266 0.0311742
0.226093 0.126085 0
0.26276 0.1364 0
0.299931 0.147372 0
0.340536 0.1608 0
0.387106 0.172808 0
0.44358 0.182803 0
0.515953 0.187472 0
0.585168 0.211643 0
0.656184 0.241337 0
0.728573 0.274998 0
0.802319 0.311299 0
0.87808 0.349538 0
0.945602 0.384329 0
1 0.419364 0
1 0.454856 0
1 0.487449 0
1 0.524071 0
1 0.561547 0
1 0.599145 0
1 0.635325 0
1 0.672328 0
1 0.709972 0
1 0.747845 0
1 0.786267 0
1 0.825208 0
1 0.864561 0
1 0.904341 0
1 0.944518 0
1 0.985077 0
1 1 0
1 1 0
1 1 0
1 1 0
1 1 0
1 1 0
1 1 0
1 1 0
1 1 0
1 1 0
1 1 0
1 1 0
1 1 0
1 1 0
1 1 0
1 1 0
1 1 0
1 1 0
1 1 0
1 1 0
1 1 0
0 0.122805 0.0102846
0 0.122881 0.0102846
0 0.123232 0.0103151
0 0.12398 0.0103914
0 0.125231 0.0104982
0 0.127169 0.0106813
0 0.130083 0.010956
0 0.130907 0.0133974
0 0.131701 0.0183719
0.0370642 0.135317 0.031693
0.0693828 0.136645 0.0364843
0.105364 0.137652 0.0413825
0.135409 0.138109 0.0477302
0.15845 0.141527 0.0566262
0.181979 0.14548 0.0599527
0.210544 0.151965 0.0569314
0.25861 0.157671 0.0260166
0.302312 0.166354 0.000244144
0.341039 0.177325 0
0.382681 0.190311 0
0.42858 0.205753 0
0.480446 0.224796 0
0.54107 0.248981 0
0.607645 0.276295 0
0.678614 0.30573 0
0.753887 0.336812 0
0.851499 0.364065 0
0.931121 0.395453 0
1 0.427405 0
1 0.457542 0
1 0.492287 0
1 0.528222 0
1 0.56495 0
1 0.601923 0
1 0.637644 0
1 0.674311 0
1 0.711635 0
1 0.749233 0
1 0.787442 0
1 0.826123 0
1 0.865309 0
1 0.904875 0
1 0.944884 0
1 0.985321 0
1 1 0
1 1 0
1 1 0
1 1 0
1 1 0
1 1 0
1 1 0
1 1 0
1 1 0
1 1 0
1 1 0
1 1 0
1 1 0
1 1 0
1 1 0
1 1 0
1 1 0
1 1 0
1 1 0
1 1 0
1 1 0
0 0.163684 0.0142367
0 0.163684 0.0142824
0 0.163638 0.0145113
0 0.163546 0.0150149
0 0.163439 0.0158083
0 0.163317 0.0170443
0 0.163272 0.0187991
0 0.163394 0.0212406
0 0.163821 0.0244602
0.0249485 0.167803 0.0393835
0.0628214 0.169207 0.0457313
0.102235 0.170672 0.0518502
0.136522 0.171283 0.0570687
0.169696 0.171984 0.0639048
0.194049 0.175677 0.0712291
0.218662 0.179202 0.0747997
0.246387 0.185641 0.0747387
0.290776 0.190875 0.0464485
0.340566 0.19649 0.00601205
0.383215 0.205585 0
0.426261 0.217319 0
0.474311 0.232609 0
0.529686 0.253071 0
0.593652 0.279103 0
0.662272 0.308278 0
0.734432 0.341909 0
0.808988 0.373785 0
0.885771 0.406836 0
0.962905 0.440223 0
1 0.471092 0
1 0.500496 0
1 0.533364 0
1 0.567163 0
1 0.602487 0
1 0.639597 0
1 0.677562 0
1 0.715389 0
1 0.752224 0
1 0.789761 0
1 0.827939 0
1 0.866667 0
1 0.905898 0
1 0.945647 0
1 0.985855 0
1 1 0
1 1 0
1 1 0
1 1 0
1 1 0
1 1 0
1 1 0
1 1 0
1 1 0
1 1 0
1 1 0
1 1 0
1 1 0
1 1 0
1 1 0
1 1 0
1 1 0
1 1 0
1 1 0
1 1 0
1 1 0
0 0.203922 0.0261387
0 0.203922 0.0261997
0 0.203861 0.0264134
0 0.203769 0.0269017
0 0.203616 0.0276646
0 0.203464 0.028809
0 0.203342 0.0304112
0 0.203326 0.0325322
0 0.20351 0.0350347
0 0.204974 0.0421912
0.0504311 0.208652 0.0563211
0.0944991 0.209995 0.0633097
0.134218 0.210803 0.0695048
0.171878 0.211002 0.0753643
0.20737 0.211246 0.0813764
0.233417 0.214328 0.0876326
0.258106 0.216327 0.0908675
0.285206 0.220584 0.0901808
0.323125 0.225895 0.0703288
0.375021 0.227008 0.0140078
0.423621 0.2327 0
0.470817 0.24361 0
0.52256 0.26038 0
0.583841 0.284596 0
0.651011 0.314855 0
0.720745 0.343481 0
0.794095 0.374121 0
0.869825 0.406226 0
0.947845 0.439628 0
1 0.470741 0
1 0.502022 0
1 0.531136 0
1 0.563897 0
1 0.600183 0
1 0.636133 0
1 0.673014 0
1 0.710765 0
1 0.749004 0
1 0.787808 0
1 0.828855 0
1 0.869368 0
1 0.909026 0
1 0.947829 0
1 0.987259 0
1 1 0
1 1 0
1 1 0
1 1 0
1 1 0
1 1 0
1 1 0
1 1 0
1 1 0
1 1 0
1 1 0
