Project/Into The Light/Assets/Art/LUTs/ITL Lut Industrial Exterior_1.Frame.cube
TITLE "Generated by Resolve"
LUT_3D_SIZE 5
0 0 0
0.270405 0.0151522 0
1 0.555261 0
1 1 0
1 1 0
0 0.347509 0.0529641
0.299123 0.345907 0.111116
1 0.562737 0
1 1 0
1 1 0
0 1 0.511406
0 1 0.471534
1 1 0.541329
1 1 0
1 1 0
0 1 1
0 1 1
0.758648 1 1
1 1 1
1 1 0.373938
0 1 1
0 1 1
0 1 1
1 1 1
1 1 1
0.119783 0.0894484 0.353384
0.31693 0.0144503 0.435187
1 0.37763 0
1 1 0
1 1 0
0 0.34934 0.470863
0.298116 0.335058 0.439017
1 0.54313 0
1 1 0
1 1 0
0 1 0.654719
0 1 0.62414
1 1 0.682429
1 1 0
1 1 0
0 1 1
0 1 1
0.746365 1 1
1 1 1
1 1 0.395315
0 1 1
0 1 1
0 1 1
1 1 1
1 1 1
0.814786 0.972305 1
0.864149 0.946212 1
1 0.826047 1
1 0.375967 1
1 0.973663 1
0.751644 0.982345 1
0.81239 0.96849 1
1 0.869337 1
1 0.513298 1
1 0.967971 1
0.322072 1 1
0.438972 1 1
1 1 1
1 1 1
1 1 1
0 1 1
0 1 1
0.645258 1 1
1 1 1
1 1 1
0 1 1
0 1 1
0 1 1
1 1 1
1 1 1
1 1 1
1 1 1
1 1 1
1 1 1
1 1 1
1 1 1
1 1 1
1 1 1
1 1 1
1 1 1
1 1 1
1 1 1
1 1 1
1 1 1
1 1 1
0.969253 1 1
0.98233 1 1
1 1 1
1 1 1
1 1 1
0 1 1
0 1 1
0 1 1
1 1 1
1 1 1
1 1 1
1 1 1
1 1 1
1 1 1
1 1 1
1 1 1
1 1 1
1 1 1
1 1 1
1 1 1
1 1 1
1 1 1
1 1 1
1 1 1
1 1 1
1 1 1
1 1 1
1 1 1
1 1 1
1 1 1
0 1 1
0 1 1
0.681865 1 1
1 1 1
1 1 1
